svg/Tango/emotes/face-wink.svg

<?xml version="1.0" encoding="UTF-8" standalone="no"?>
<!-- Created with Inkscape (http://www.inkscape.org/) -->
<svg
   xmlns:dc="http://purl.org/dc/elements/1.1/"
   xmlns:cc="http://creativecommons.org/ns#"
   xmlns:rdf="http://www.w3.org/1999/02/22-rdf-syntax-ns#"
   xmlns:svg="http://www.w3.org/2000/svg"
   xmlns="http://www.w3.org/2000/svg"
   xmlns:xlink="http://www.w3.org/1999/xlink"
   xmlns:sodipodi="http://sodipodi.sourceforge.net/DTD/sodipodi-0.dtd"
   xmlns:inkscape="http://www.inkscape.org/namespaces/inkscape"
   sodipodi:docname="face-wink.svg"
   sodipodi:docbase="/home/jimmac/src/cvs/tango-icon-theme/scalable/emotes"
   inkscape:version="0.46"
   sodipodi:version="0.32"
   id="svg4376"
   height="48px"
   width="48px"
   inkscape:output_extension="org.inkscape.output.svg.inkscape">
  <defs
     id="defs3">
    <inkscape:perspective
       sodipodi:type="inkscape:persp3d"
       inkscape:vp_x="0 : 24 : 1"
       inkscape:vp_y="0 : 1000 : 0"
       inkscape:vp_z="48 : 24 : 1"
       inkscape:persp3d-origin="24 : 16 : 1"
       id="perspective39" />
    <linearGradient
       id="linearGradient3290">
      <stop
         id="stop3292"
         offset="0.0000000"
         style="stop-color:#fffcde;stop-opacity:1.0000000;" />
      <stop
         style="stop-color:#f6e76a;stop-opacity:1.0000000;"
         offset="0.64485979"
         id="stop3294" />
      <stop
         id="stop3296"
         offset="1.0000000"
         style="stop-color:#ffb738;stop-opacity:1.0000000;" />
    </linearGradient>
    <radialGradient
       r="8.9020796"
       fy="15.755712"
       fx="29.158466"
       cy="15.720984"
       cx="29.288071"
       gradientUnits="userSpaceOnUse"
       id="radialGradient2714"
       xlink:href="#linearGradient3290"
       inkscape:collect="always" />
    <linearGradient
       id="linearGradient2509">
      <stop
         style="stop-color:#fffbd5;stop-opacity:1.0000000;"
         offset="0.0000000"
         id="stop2511" />
      <stop
         style="stop-color:#edd400;stop-opacity:1.0000000;"
         offset="1.0000000"
         id="stop2513" />
    </linearGradient>
    <radialGradient
       gradientTransform="matrix(1.250000,0.000000,0.000000,1.250000,-6.479446,-13.37211)"
       id="aigrd2"
       cx="25.0527"
       cy="39.5928"
       r="15.7572"
       fx="25.0527"
       fy="39.5928"
       gradientUnits="userSpaceOnUse">
      <stop
         offset="0.0000000"
         style="stop-color:#777777;stop-opacity:1.0000000;"
         id="stop8602" />
      <stop
         offset="1"
         style="stop-color:#000000"
         id="stop8604" />
    </radialGradient>
    <linearGradient
       id="linearGradient4565"
       inkscape:collect="always">
      <stop
         id="stop4567"
         offset="0"
         style="stop-color:#000000;stop-opacity:1;" />
      <stop
         id="stop4569"
         offset="1"
         style="stop-color:#000000;stop-opacity:0;" />
    </linearGradient>
    <linearGradient
       id="linearGradient3824">
      <stop
         id="stop3826"
         offset="0"
         style="stop-color:#ffffff;stop-opacity:1;" />
      <stop
         id="stop3828"
         offset="1.0000000"
         style="stop-color:#c9c9c9;stop-opacity:1.0000000;" />
    </linearGradient>
    <linearGradient
       id="linearGradient3800">
      <stop
         id="stop3802"
         offset="0.0000000"
         style="stop-color:#ffeed6;stop-opacity:1.0000000;" />
      <stop
         style="stop-color:#e49c2f;stop-opacity:1.0000000;"
         offset="0.50000000"
         id="stop8664" />
      <stop
         id="stop3804"
         offset="1.0000000"
         style="stop-color:#ffc66c;stop-opacity:1.0000000;" />
    </linearGradient>
    <radialGradient
       gradientUnits="userSpaceOnUse"
       gradientTransform="matrix(1.000000,0.000000,0.000000,0.333333,0.000000,25.71429)"
       r="19.714285"
       fy="38.571430"
       fx="24.714285"
       cy="38.571430"
       cx="24.714285"
       id="radialGradient4571"
       xlink:href="#linearGradient4565"
       inkscape:collect="always" />
    <radialGradient
       inkscape:collect="always"
       xlink:href="#aigrd2"
       id="radialGradient3279"
       gradientUnits="userSpaceOnUse"
       gradientTransform="matrix(1.250000,0.000000,0.000000,1.250000,-6.479446,-13.37211)"
       cx="25.0527"
       cy="39.5928"
       fx="25.0527"
       fy="39.5928"
       r="15.7572" />
  </defs>
  <sodipodi:namedview
     inkscape:window-y="108"
     inkscape:window-x="556"
     inkscape:window-height="739"
     inkscape:window-width="872"
     inkscape:showpageshadow="false"
     inkscape:document-units="px"
     inkscape:grid-bbox="true"
     showgrid="false"
     inkscape:current-layer="layer1"
     inkscape:cy="37.652189"
     inkscape:cx="-138.11614"
     inkscape:zoom="1"
     inkscape:pageshadow="2"
     inkscape:pageopacity="0.0"
     borderopacity="0.19607843"
     bordercolor="#666666"
     pagecolor="#ffffff"
     id="base"
     fill="#edd400" />
  <metadata
     id="metadata4">
    <rdf:RDF>
      <cc:Work
         rdf:about="">
        <dc:format>image/svg+xml</dc:format>
        <dc:type
           rdf:resource="http://purl.org/dc/dcmitype/StillImage" />
        <dc:title>Face - Wink</dc:title>
        <dc:subject>
          <rdf:Bag>
            <rdf:li>emoticon</rdf:li>
            <rdf:li>emote</rdf:li>
            <rdf:li>winkie</rdf:li>
            <rdf:li>wink</rdf:li>
            <rdf:li>;)</rdf:li>
            <rdf:li>;-)</rdf:li>
          </rdf:Bag>
        </dc:subject>
        <cc:license
           rdf:resource="http://creativecommons.org/licenses/publicdomain/" />
        <dc:creator>
          <cc:Agent>
            <dc:title>Jakub Steiner</dc:title>
          </cc:Agent>
        </dc:creator>
        <dc:source>http://jimmac.musichall.cz</dc:source>
        <dc:description />
        <dc:contributor>
          <cc:Agent>
            <dc:title>Corey Woodworth</dc:title>
          </cc:Agent>
        </dc:contributor>
      </cc:Work>
      <cc:License
         rdf:about="http://creativecommons.org/licenses/publicdomain/">
        <cc:permits
           rdf:resource="http://creativecommons.org/ns#Reproduction" />
        <cc:permits
           rdf:resource="http://creativecommons.org/ns#Distribution" />
        <cc:permits
           rdf:resource="http://creativecommons.org/ns#DerivativeWorks" />
      </cc:License>
    </rdf:RDF>
  </metadata>
  <g
     inkscape:groupmode="layer"
     inkscape:label="Layer 1"
     id="layer1">
    <path
       d="M 44.428570 38.571430 A 19.714285 6.5714288 0 1 1  5.0000000,38.571430 A 19.714285 6.5714288 0 1 1  44.428570 38.571430 z"
       sodipodi:ry="6.5714288"
       sodipodi:rx="19.714285"
       sodipodi:cy="38.571430"
       sodipodi:cx="24.714285"
       id="path4563"
       style="opacity:0.53164557;color:#000000;fill:url(#radialGradient4571);fill-opacity:1.0;fill-rule:evenodd;stroke:none;stroke-width:0.40487173;stroke-linecap:round;stroke-linejoin:round;marker:none;marker-start:none;marker-mid:none;marker-end:none;stroke-miterlimit:4.0000000;stroke-dasharray:none;stroke-dashoffset:0.0000000;stroke-opacity:1.0000000;visibility:visible;display:inline;overflow:visible"
       sodipodi:type="arc" />
    <path
       transform="matrix(2.083142,0.000000,0.000000,2.083142,-40.54715,-16.49224)"
       d="M 39.774755 19.008621 A 8.6620579 8.6620579 0 1 1  22.450640,19.008621 A 8.6620579 8.6620579 0 1 1  39.774755 19.008621 z"
       sodipodi:ry="8.6620579"
       sodipodi:rx="8.6620579"
       sodipodi:cy="19.008621"
       sodipodi:cx="31.112698"
       id="path4320"
       style="overflow:visible;display:inline;visibility:visible;stroke-opacity:1.0000000;stroke-dashoffset:0.0000000;stroke-dasharray:none;stroke-miterlimit:4.0000000;marker-end:none;marker-mid:none;marker-start:none;marker:none;stroke-linejoin:round;stroke-linecap:round;stroke-width:0.48004404;stroke:#9c8c0a;fill-rule:evenodd;fill-opacity:1.0000000;fill:url(#radialGradient2714);color:#000000;opacity:1.0000000"
       sodipodi:type="arc" />
    <path
       transform="matrix(1.979782,0.000000,0.000000,1.979782,-37.33128,-14.52746)"
       sodipodi:type="arc"
       style="opacity:0.67721519;color:#000000;fill:none;fill-opacity:1.0000000;fill-rule:evenodd;stroke:#ffffff;stroke-width:0.50510627;stroke-linecap:round;stroke-linejoin:round;marker:none;marker-start:none;marker-mid:none;marker-end:none;stroke-miterlimit:4.0000000;stroke-dasharray:none;stroke-dashoffset:0.0000000;stroke-opacity:1.0000000;visibility:visible;display:inline;overflow:visible"
       id="path4322"
       sodipodi:cx="31.112698"
       sodipodi:cy="19.008621"
       sodipodi:rx="8.6620579"
       sodipodi:ry="8.6620579"
       d="M 39.774755 19.008621 A 8.6620579 8.6620579 0 1 1  22.450640,19.008621 A 8.6620579 8.6620579 0 1 1  39.774755 19.008621 z" />
    <g
       id="g3267"
       transform="matrix(0.969372,0.245598,-0.245598,0.969372,6.456937,-5.230004)">
      <path
         style="opacity:0.35999998;color:#000000;fill:#ffffff;fill-opacity:1.0000000;fill-rule:nonzero;stroke:none;stroke-width:1.0000000;stroke-linecap:butt;stroke-linejoin:miter;marker:none;marker-start:none;marker-mid:none;marker-end:none;stroke-miterlimit:4.0000000;stroke-dasharray:none;stroke-dashoffset:0.0000000;stroke-opacity:1.0000000;visibility:visible;display:inline;overflow:visible"
         d="M 37.284637,24.719966 C 34.268170,29.944639 30.741134,33.710005 24.462492,33.710005 C 18.362475,33.710005 13.896955,29.370308 11.110016,24.543189 C 13.659429,27.599109 17.392948,31.109501 24.197327,31.109501 C 32.327531,31.109501 33.749103,28.202646 37.284637,24.719966 z "
         id="path2659"
         sodipodi:nodetypes="czczc" />
      <path
         sodipodi:nodetypes="czczc"
         id="path8606"
         d="M 37.284637,24.012862 C 34.268170,29.237535 30.741134,33.002901 24.462492,33.002901 C 18.362475,33.002901 13.896955,28.663204 11.110016,23.836085 C 13.659429,26.892005 17.392948,30.402397 24.197327,30.402397 C 32.327531,30.402397 33.749103,27.495542 37.284637,24.012862 z "
         style="fill:url(#radialGradient3279);fill-rule:nonzero;stroke:none;stroke-miterlimit:4.0000000" />
    </g>
    <path
       id="path8612"
       d="M 31.042065,17.714134 C 31.042065,20.214134 29.917065,22.214134 28.542065,22.214134 C 27.167065,22.214134 26.042065,20.214134 26.042065,17.714134 C 26.042065,15.214134 27.167065,13.214134 28.542065,13.214134 C 29.917065,13.214134 31.042065,15.214134 31.042065,17.714134 z "
       style="opacity:0.35999998;fill:#ffffff;fill-rule:nonzero;stroke:none;stroke-miterlimit:4.0000000" />
    <path
       id="path8616"
       d="M 31.042065,17.089134 C 31.042065,19.589134 29.917065,21.589134 28.542065,21.589134 C 27.167065,21.589134 26.042065,19.589134 26.042065,17.089134 C 26.042065,14.589134 27.167065,12.589134 28.542065,12.589134 C 29.917065,12.589134 31.042065,14.589134 31.042065,17.089134 z "
       style="fill:#000000;fill-rule:nonzero;stroke:none;stroke-miterlimit:4.0000000" />
    <path
       style="opacity:1;color:#000000;fill:#000000;fill-opacity:1;fill-rule:nonzero;stroke:none;stroke-width:1.0000006;stroke-linecap:butt;stroke-linejoin:miter;marker:none;marker-start:none;marker-mid:none;marker-end:none;stroke-miterlimit:4;stroke-dasharray:none;stroke-dashoffset:0;stroke-opacity:1;visibility:visible;display:inline;overflow:visible"
       d="M 15.924926,17.535184 C 17.28643,14.190727 20.768376,14.102908 21.99369,17.42035 C 19.832621,15.70722 17.845598,16.200617 15.924926,17.535184 z "
       id="path1336"
       sodipodi:nodetypes="ccc" />
  </g>
</svg>

<svg xmlns="http://www.w3.org/2000/svg" xmlns:xlink="http://www.w3.org/1999/xlink" viewBox="0 0 48 48"><defs><radialGradient xlink:href="#1" id="3" gradientUnits="userSpaceOnUse" cx="24.836" cy="36.12" r="19.697"/><radialGradient gradientUnits="userSpaceOnUse" gradientTransform="matrix(1 0 0 .33333 0 25.714)" r="19.714" cy="38.571" cx="24.714" id="2"><stop/><stop offset="1" stop-opacity="0"/></radialGradient><radialGradient r="8.902" fy="15.756" fx="29.16" cy="15.721" cx="29.29" gradientUnits="userSpaceOnUse" id="0"><stop stop-color="#fffcde"/><stop offset=".645" stop-color="#f6e76a"/><stop offset="1" stop-color="#ffb738"/></radialGradient><radialGradient id="1" cx="24.836" cy="36.12" r="19.697" gradientUnits="userSpaceOnUse"><stop stop-color="#777"/><stop offset="1"/></radialGradient></defs><g fill-rule="evenodd" color="#000"><path d="M44.42857 38.57143A19.714285 6.571429 0 1 1 5 38.57143 19.714285 6.571429 0 1 1 44.42857 38.57143" opacity=".532" fill="url(#2)"/><g stroke-linejoin="round" stroke-linecap="round"><path transform="matrix(2.08314 0 0 2.08314-40.547-16.492)" d="M39.774755 19.00862A8.662058 8.662058 0 1 1 22.45064 19.00862 8.662058 8.662058 0 1 1 39.774755 19.00862z" stroke-width=".48" fill="url(#0)" stroke="#9c8c0a"/><path transform="matrix(1.97978 0 0 1.97978-37.33-14.527)" d="M39.774755 19.00862A8.662058 8.662058 0 1 1 22.45064 19.00862 8.662058 8.662058 0 1 1 39.774755 19.00862z" opacity=".677" stroke-width=".505" fill="none" stroke="#fff"/></g></g><g transform="matrix(.96937.2456-.2456.96937 6.457-5.23)"><path d="m37.28 24.72c-3.02 5.225-6.544 8.99-12.822 8.99-6.1 0-10.566-4.34-13.352-9.167 2.549 3.056 6.283 6.566 13.09 6.566 8.13 0 9.552-2.907 13.09-6.39" opacity=".36" color="#000" fill="#fff"/><path d="m37.28 24.01c-3.02 5.225-6.544 8.99-12.822 8.99-6.1 0-10.566-4.34-13.352-9.167 2.549 3.056 6.283 6.566 13.09 6.566 8.13 0 9.552-2.907 13.09-6.39" fill="url(#3)"/></g><path d="m31.04 17.714c0 2.5-1.125 4.5-2.5 4.5-1.375 0-2.5-2-2.5-4.5 0-2.5 1.125-4.5 2.5-4.5 1.375 0 2.5 2 2.5 4.5" opacity=".36" fill="#fff"/><path d="m31.04 17.09c0 2.5-1.125 4.5-2.5 4.5-1.375 0-2.5-2-2.5-4.5 0-2.5 1.125-4.5 2.5-4.5 1.375 0 2.5 2 2.5 4.5"/><path d="m15.925 17.535c1.362-3.344 4.843-3.432 6.069-.115-2.161-1.713-4.148-1.22-6.069.115" color="#000"/></svg>
